X: 36
T:Pibddawns Gwyr Gwrecsam
M:C|
L:1/8
Q:180
C:Trad
S:Blodau'r Grug Collection Vol. 3
A:Wales
Z:brian_martin12345@yahoo.com
K:G
G2|d2g2 gdBd|c2e2e2ge|dBdB edcB|ABcB AGFD|d2g2 gdBd|c2e2e2ge|
dBdB ecAF|G2G2G2:||
Bc|dBdBd2gd|gege cege|dBdB edcB|ABcB AGFD|dBdBd2gd|ecece2ge|
dBdB ecAF|G2G2G2:||

